svg/bar-chart.svg

<svg fill="none" height="24" viewBox="0 0 24 24" width="24" xmlns="http://www.w3.org/2000/svg"><path d="m3 5c0-1.10457.89543-2 2-2h14c1.1046 0 2 .89543 2 2v14c0 1.1046-.8954 2-2 2h-14c-1.10457 0-2-.8954-2-2zm16 0h-14v14h14zm-7 2c.5523 0 1 .44772 1 1v8c0 .5523-.4477 1-1 1s-1-.4477-1-1v-8c0-.55228.4477-1 1-1zm4 2c.5523 0 1 .44772 1 1v6c0 .5523-.4477 1-1 1s-1-.4477-1-1v-6c0-.55228.4477-1 1-1zm-8 2c.55228 0 1 .4477 1 1v4c0 .5523-.44772 1-1 1s-1-.4477-1-1v-4c0-.5523.44772-1 1-1z" fill="#0d0d0d"/></svg>

<svg width="24" height="24" viewBox="0 0 24 24" fill="none" xmlns="http://www.w3.org/2000/svg">
<path fill-rule="evenodd" clip-rule="evenodd" d="M3 5C3 3.89543 3.89543 3 5 3H19C20.1046 3 21 3.89543 21 5V19C21 20.1046 20.1046 21 19 21H5C3.89543 21 3 20.1046 3 19V5ZM19 5H5V19H19V5ZM12 7C12.5523 7 13 7.44772 13 8V16C13 16.5523 12.5523 17 12 17C11.4477 17 11 16.5523 11 16V8C11 7.44772 11.4477 7 12 7ZM16 9C16.5523 9 17 9.44772 17 10V16C17 16.5523 16.5523 17 16 17C15.4477 17 15 16.5523 15 16V10C15 9.44772 15.4477 9 16 9ZM8 11C8.55228 11 9 11.4477 9 12V16C9 16.5523 8.55228 17 8 17C7.44772 17 7 16.5523 7 16V12C7 11.4477 7.44772 11 8 11Z" fill="#0D0D0D"/>
</svg>
